playlist-star.svg

<svg fill="currentColor" viewBox="0 0 24 24"><path d="m17 19.1 2.5 1.5-.7-2.8 2.2-1.9-2.9-.2L17 13l-1.1 2.6-2.9.3 2.2 1.9-.7 2.8zM3 14h8v2H3zm0-8h12v2H3zm0 4h12v2H3z"/></svg>

<svg  viewBox="0 0 24 24" fill="currentColor"><path  d="M17 19.1L19.5 20.6L18.8 17.8L21 15.9L18.1 15.7L17 13L15.9 15.6L13 15.9L15.2 17.8L14.5 20.6L17 19.1M3 14H11V16H3V14M3 6H15V8H3V6M3 10H15V12H3V10Z"/></svg>
